packages/icons/svgs/solid/Source=linkedin.svg

<svg width="12" height="12" viewBox="0 0 12 12" fill="none" xmlns="http://www.w3.org/2000/svg">
<g clip-path="url(#clip0_1720_862)">
<path d="M11.4037 0H0.521739C0.223602 0 0 0.225 0 0.525V11.55C0 11.775 0.223602 12 0.521739 12H11.4783C11.7764 12 12 11.775 12 11.475V0.525C11.9255 0.225 11.7019 0 11.4037 0ZM3.50311 10.2H1.78882V4.5H3.57764V10.2H3.50311ZM2.68323 3.75C2.08696 3.75 1.63975 3.225 1.63975 2.7C1.63975 2.1 2.08696 1.65 2.68323 1.65C3.2795 1.65 3.72671 2.1 3.72671 2.7C3.65217 3.225 3.20497 3.75 2.68323 3.75ZM10.1366 10.2H8.34783V7.425C8.34783 6.75 8.34783 5.925 7.45342 5.925C6.55901 5.925 6.40994 6.675 6.40994 7.425V10.275H4.62112V4.5H6.3354V5.25C6.55901 4.8 7.15528 4.35 7.97515 4.35C9.76398 4.35 10.0621 5.55 10.0621 7.05V10.2H10.1366Z" fill="black"/>
</g>
<defs>
<clipPath id="clip0_1720_862">
<rect width="12" height="12" fill="white"/>
</clipPath>
</defs>
</svg>

<svg xmlns="http://www.w3.org/2000/svg" width="12" height="12" viewBox="0 0 12 12"><g clip-path="url(#a)"><path d="M11.404 0H.522A.511.511 0 0 0 0 .525V11.55c0 .225.224.45.522.45h10.956a.511.511 0 0 0 .522-.525V.525c-.075-.3-.298-.525-.596-.525Zm-7.9 10.2H1.788V4.5h1.789v5.7h-.075Zm-.82-6.45c-.597 0-1.044-.525-1.044-1.05 0-.6.447-1.05 1.043-1.05.597 0 1.044.45 1.044 1.05-.075.525-.522 1.05-1.044 1.05Zm7.453 6.45h-1.79V7.425c0-.675 0-1.5-.894-1.5s-1.043.75-1.043 1.5v2.85H4.62V4.5h1.714v.75c.224-.45.82-.9 1.64-.9 1.789 0 2.087 1.2 2.087 2.7v3.15h.075Z"/></g><defs><clipPath id="a"><path fill="#fff" d="M0 0h12v12H0z"/></clipPath></defs></svg>
